X: 38791
T: Suaimhneas Intinne
R: barndance
M: 4/4
K: Dminor
B2e2 e2f2|f2g2 g2ga|a2d2 d2dc|c'4 b2ba|
e2f2 g2{g}a2|d4- d2B2|c2e2 f2g2|c8|
d2f2 d2B2|BcG2 f2fe|c8-|c8|
B2e2 e2f2|f2g2 g2ga|a2d2 d2z2|c'4 b2ba|
e2f2 g2{g}a2|d4- d2B2|c2ec f2g2|c8|
d2f2 d2B2|BcG2 f2fe|c8-|c8||
A2c2 cdf2|f2d2- d2dc|A2c2 cdf2|f2d2 d2B2|
e2f2 g2ga|a2e2 e2BG|def2 fgag|b2ba g2gf|
e3d fgga|d2d2- d3G|A2d2 f2gf|a3d B2c2|
g2a2 f2e2|c4- c2(3cBA|c8-|c8||

